img/venmo.svg

<svg xmlns="http://www.w3.org/2000/svg" width="24" height="24" fill="none" viewBox="0 0 24 24">
  <g clip-path="url(#a)">
    <path fill="#008CFF" fill-rule="evenodd" d="M24 12c0 6.628-5.372 12-12 12-6.627 0-12-5.372-12-12C0 5.373 5.373 0 12 0c6.628 0 12 5.373 12 12Zm-5.982-3.571c0-1-.21-1.79-.677-2.558l-4.035.814c.256.535.42 1.185.42 2.14 0 1.744-1.237 4.303-2.24 5.93L10.413 6.15l-4.431.42 2.03 12.094h5.06c2.216-2.907 4.946-7.047 4.946-10.234Z" clip-rule="evenodd"/>
  </g>
  <defs>
    <clipPath id="a">
      <path fill="#fff" d="M0 0h24v24H0z"/>
    </clipPath>
  </defs>
</svg>

<svg width="24" height="24" viewBox="0 0 24 24" fill="none" xmlns="http://www.w3.org/2000/svg">
<path fill-rule="evenodd" clip-rule="evenodd" d="M24 12C24 18.628 18.628 24 12 24C5.373 24 0 18.628 0 12C0 5.373 5.373 0 12 0C18.628 0 24 5.373 24 12ZM18.018 8.429C18.018 7.429 17.808 6.639 17.341 5.871L13.306 6.685C13.562 7.22 13.726 7.87 13.726 8.825C13.726 10.569 12.489 13.128 11.486 14.755L10.413 6.15L5.982 6.57L8.012 18.664H13.072C15.288 15.757 18.018 11.617 18.018 8.43V8.429Z" fill="#008CFF"/>
</svg>
